src/Icons/icons/save.svg

<svg viewBox="0 0 24 24" fill="#4C4C4C" xmlns="http://www.w3.org/2000/svg">
<path d="M23.6876 6.62475C23.4793 6.12497 23.2291 5.72901 22.9373 5.43743L18.5623 1.06238C18.2709 0.77095 17.8749 0.520844 17.3749 0.312386C16.8752 0.104147 16.4167 0 16.0001 0H1.49989C1.08335 0 0.729094 0.14574 0.437391 0.437439C0.145687 0.728974 0 1.08317 0 1.49992V22.5C0 22.9169 0.145687 23.2711 0.437391 23.5627C0.729094 23.8541 1.08335 24 1.49989 24H22.5002C22.9171 24 23.2713 23.8541 23.5629 23.5627C23.8543 23.2711 24 22.9169 24 22.5V8C24 7.58319 23.8959 7.1249 23.6876 6.62475ZM10.0001 2.4998C10.0001 2.3644 10.0496 2.24745 10.1486 2.14828C10.2475 2.04956 10.3648 2.00008 10.5002 2.00008H13.5003C13.6354 2.00008 13.7526 2.04945 13.8515 2.14828C13.9507 2.24745 14.0002 2.3644 14.0002 2.4998V7.49984C14.0002 7.63546 13.9504 7.75258 13.8515 7.85158C13.7526 7.95025 13.6354 7.99978 13.5003 7.99978H10.5002C10.3648 7.99978 10.2475 7.95042 10.1486 7.85158C10.0496 7.75241 10.0001 7.63546 10.0001 7.49984V2.4998ZM18.0004 22.0001H5.99989V15.9999H18.0004V22.0001ZM22.0007 22.0001H20.0003H19.9999V15.4999C19.9999 15.083 19.8541 14.7291 19.5626 14.4372C19.271 14.1457 18.9168 13.9998 18.5003 13.9998H5.49995C5.08324 13.9998 4.72898 14.1457 4.43728 14.4372C4.14574 14.7288 3.99989 15.083 3.99989 15.4999V22.0001H1.99984V1.99986H3.99984V8.49994C3.99984 8.91669 4.14552 9.27073 4.43723 9.56242C4.72893 9.85396 5.08319 9.99986 5.49989 9.99986H14.5003C14.9168 9.99986 15.2714 9.85396 15.5626 9.56242C15.854 9.27089 16.0001 8.91669 16.0001 8.49994V1.99986C16.1563 1.99986 16.3593 2.05185 16.6096 2.156C16.8598 2.26009 17.0368 2.36424 17.1409 2.46839L21.5319 6.8592C21.636 6.96335 21.7402 7.14324 21.8443 7.39832C21.9488 7.65363 22.0007 7.8542 22.0007 8V22.0001H22.0007Z" />
</svg>

<svg viewBox="0 0 24 24" fill="#4C4C4C" xmlns="http://www.w3.org/2000/svg"><path d="M23.688 6.625c-.209-.5-.459-.896-.75-1.188l-4.376-4.375c-.291-.291-.687-.541-1.187-.75C16.875.104 16.417 0 16 0H1.5C1.083 0 .73.146.437.437A1.446 1.446 0 000 1.5v21c0 .417.146.771.437 1.063.292.291.646.437 1.063.437h21c.417 0 .771-.146 1.063-.437.291-.292.437-.646.437-1.063V8c0-.417-.104-.875-.312-1.375zM10 2.5a.48.48 0 01.149-.352A.481.481 0 0110.5 2h3a.48.48 0 01.351.148c.1.1.15.216.15.352v5c0 .135-.05.253-.15.352a.481.481 0 01-.35.148h-3a.48.48 0 01-.352-.148A.48.48 0 0110 7.5v-5zM18 22H6v-6h12v6zm4 0h-2v-6.5c0-.417-.146-.77-.437-1.063A1.447 1.447 0 0018.5 14h-13c-.417 0-.771.146-1.063.437A1.447 1.447 0 004 15.5V22H2V2h2v6.5c0 .417.146.77.437 1.062.292.292.646.438 1.063.438h9c.417 0 .771-.146 1.063-.438.291-.291.437-.645.437-1.062V2c.156 0 .36.052.61.156.25.104.427.208.53.312l4.392 4.391c.104.104.208.284.312.54.105.255.157.455.157.601v14z"/></svg>
